X: 1
T: My Home
O: Trad Scotland
Z: 2005 John Chambers <jc:trillian.mit.edu>
M: 3/4
L: 1/8
R: waltz
K: A
ed "A"|\
"A"c3B c2 | A2c2 e2 | "D"a3g f2 | "E7"e4 d2 |\
"A"c3B c2 | "F#m"A3B c2 | "Bm"d3c d2 | "E7"B4 ||
ed |\
"A"c3B c2 | A2c2 e2 | "D"a3g f2 | "E7"e4 d2 |\
"A"cA3 c2 | "G"B=G3 B2 | "A"A3B A2 | A4 |]
e2 "B"|\
"A"A3B c2 | c3B c2 | e3d c2 |"(F#m)"c4 e2 |\
"Bm"d3c d2 | "E7"B3c d2 | "A"e3c A2 | A4 ||
e2 |\
"D"f3d f2 | a3g f2 | "A"e3d c2 | "D"a4 d2 |\
"A"cA3 c2 | "G"B=G3 B2 | "A"A3B A2 | A4 |]
